;Updated: 18 December 2022

;Wuxn WXR Calibration Cube for OOBWCW
;Refer to Wuxn WXR Quick Start Guide to interpret results
;Machine = Wuxn WXR
;Material = Wuxn Classic PLA
;Print Profile = Fast
;Custom Settings = 250% feedrate, no skirt, skin overlap 0.2mm, infill pattern cubic, 25% infill, 120mm/s infill speed, & 150mm/s travel speed
;TIME: 40mins
;Generated with Cura_SteamEngine 5.0.0

M82 ;absolute extrusion mode

M220 S100;
M204 S1250;
G92 E0;
G1 F700 E-1;
M104 S205;
M140 S60;
G28 X;
G0 F8000 X1;
G28 Y;
G0 F8000 Y1;
G28 Z;
M190 S60;         
M121;
G0 F8000 X40 Y-20;
G0 F480 Z1;
G92 E0;
M109 S205;
G1 F450 X140 E25;
G92 E0;
G0 F480 Z0.0;
M120;
M220 S250;                                

G92 E0
G92 E0
G1 F1500 E-0.8
;LAYER_COUNT:120
;LAYER:0
M107
M204 S1100
M205 X10 Y10
G1 F720 Z0.7
;MESH:Wuxn Calibration Cube.STL
G0 F9000 X110.809 Y113.315 Z0.7
M205 X12 Y12
;TYPE:WALL-INNER
G1 F720 Z0.3
G1 F2100 E0.02079
G1 F1080 X116.686 Y119.191 E0.44644
G1 X133.314 Y119.191 E1.29808
G1 X139.192 Y113.314 E1.7238
G1 X139.192 Y96.685 E2.57549
G1 X133.314 Y90.808 E3.00121
G1 X125.533 Y90.809 E3.39973
G1 X116.686 Y90.808 E3.85285
G1 X110.809 Y96.686 E4.27857
G1 X110.809 Y113.315 E5.13026
M205 X10 Y10
G0 F9000 X110.337 Y113.511
M205 X12 Y12
;TYPE:WALL-OUTER
G1 F1080 X116.49 Y119.663 E5.5759
G1 X133.51 Y119.663 E6.44762
G1 X139.664 Y113.51 E6.89333
G1 X139.664 Y96.489 E7.7651
G1 X133.51 Y90.336 E8.21081
G1 X125.533 Y90.337 E8.61937
G1 X116.49 Y90.336 E9.08253
G1 X110.337 Y96.49 E9.52824
G1 X110.337 Y113.511 E10.40001
M205 X10 Y10
G0 F9000 X110.478 Y113.652
G1 F1500 E9.60001
G1 F720 Z0.7
G0 F9000 X120.505 Y108.671 Z0.7
M205 X12 Y12
;TYPE:WALL-INNER
G1 F720 Z0.3
G1 F2100 E10.4208
G1 F1080 X119.771 Y107.523 E10.49059
G1 X119.332 Y106.245 E10.5598
G1 X119.196 Y104.927 E10.62766
G1 X119.35 Y103.67 E10.69252
G1 X119.77 Y102.483 E10.75701
G1 X120.391 Y101.466 E10.81804
G1 X121.329 Y100.506 E10.88678
G1 X122.477 Y99.771 E10.9566
G1 X123.755 Y99.332 E11.02581
G1 X125.076 Y99.196 E11.09382
G1 X126.33 Y99.35 E11.15853
G1 X127.518 Y99.771 E11.22309
G1 X128.591 Y100.44 E11.28785
G1 X129.494 Y101.329 E11.35275
G1 X130.228 Y102.475 E11.42245
G1 X130.668 Y103.755 E11.49178
G1 X130.804 Y105.077 E11.55984
G1 X130.638 Y106.38 E11.62712
G1 X130.201 Y107.577 E11.69238
G1 X129.56 Y108.591 E11.75382
G1 X128.671 Y109.494 E11.81872
G1 X127.523 Y110.229 E11.88854
G1 X126.245 Y110.668 E11.95775
G1 X124.924 Y110.804 E12.02577
G1 X123.67 Y110.65 E12.09048
G1 X122.482 Y110.229 E12.15503
G1 X121.409 Y109.56 E12.21979
G1 X120.505 Y108.671 E12.28473
M205 X10 Y10
G0 F9000 X120.899 Y108.411
M205 X12 Y12
;TYPE:WALL-OUTER
G1 F1080 X120.215 Y107.363 E12.34883
G1 X119.801 Y106.19 E12.41254
G1 X119.665 Y104.978 E12.475
G1 X119.797 Y103.822 E12.53459
G1 X120.174 Y102.727 E12.59391
G1 X120.765 Y101.754 E12.65221
G1 X121.589 Y100.9 E12.71299
G1 X122.637 Y100.215 E12.77712
G1 X123.81 Y99.801 E12.84083
G1 X125.024 Y99.665 E12.9034
G1 X126.178 Y99.797 E12.96289
G1 X127.274 Y100.175 E13.02226
G1 X128.265 Y100.781 E13.08176
G1 X129.1 Y101.589 E13.14127
G1 X129.784 Y102.635 E13.20528
G1 X130.199 Y103.81 E13.2691
G1 X130.335 Y105.023 E13.33162
G1 X130.192 Y106.224 E13.39357
G1 X129.799 Y107.33 E13.45368
G1 X129.219 Y108.265 E13.51004
G1 X128.411 Y109.1 E13.56955
G1 X127.363 Y109.785 E13.63367
G1 X126.19 Y110.199 E13.69738
G1 X124.976 Y110.335 E13.75995
G1 X123.822 Y110.203 E13.81944
G1 X122.726 Y109.825 E13.87882
G1 X121.735 Y109.219 E13.93831
G1 X120.899 Y108.411 E13.99786
M205 X10 Y10
G0 F9000 X120.79 Y108.244
G1 F1500 E13.19786
G1 F720 Z0.7
G0 F9000 X110.844 Y113.072 Z0.7
M205 X12 Y12
;TYPE:SKIN
G1 F720 Z0.3
G1 F2100 E14.01865
G1 F1080 X116.926 Y119.153 E14.58182
M205 X10 Y10
G0 F9000 X117.668 Y119.153
M205 X12 Y12
G1 F1080 X110.844 Y112.329 E15.21375
M205 X10 Y10
G0 F9000 X110.844 Y111.587
M205 X12 Y12
G1 F1080 X118.411 Y119.153 E15.91444
M205 X10 Y10
G0 F9000 X119.153 Y119.153
M205 X12 Y12
G1 F1080 X110.844 Y110.844 E16.68388
M205 X10 Y10
G0 F9000 X110.844 Y110.102
M205 X12 Y12
G1 F1080 X119.896 Y119.153 E17.52209
M205 X10 Y10
G0 F9000 X120.638 Y119.153
M205 X12 Y12
G1 F1080 X110.844 Y109.359 E18.42905
M205 X10 Y10
G0 F9000 X110.844 Y108.617
M205 X12 Y12
G1 F1080 X121.381 Y119.153 E19.40477
M205 X10 Y10
G0 F9000 X122.123 Y119.153
M205 X12 Y12
G1 F1080 X110.844 Y107.874 E20.44925
M205 X10 Y10
G0 F9000 X110.844 Y107.132
M205 X12 Y12
G1 F1080 X122.866 Y119.153 E21.56249
M205 X10 Y10
G0 F9000 X123.608 Y119.153
M205 X12 Y12
G1 F1080 X110.844 Y106.389 E22.74449
M205 X10 Y10
G0 F9000 X110.844 Y105.647
M205 X12 Y12
G1 F1080 X124.351 Y119.153 E23.99524
M205 X10 Y10
G0 F9000 X125.093 Y119.153
M205 X12 Y12
G1 F1080 X110.844 Y104.904 E25.31476
M205 X10 Y10
G0 F9000 X110.844 Y104.162
M205 X12 Y12
G1 F1080 X125.836 Y119.153 E26.70303
M205 X10 Y10
G0 F9000 X126.578 Y119.153
M205 X12 Y12
G1 F1080 X110.844 Y103.42 E28.16001
M205 X10 Y10
G0 F9000 X110.844 Y102.677
M205 X12 Y12
G1 F1080 X127.32 Y119.153 E29.68576
M205 X10 Y10
G0 F9000 X128.063 Y119.153
M205 X12 Y12
G1 F1080 X110.844 Y101.935 E31.28026
M205 X10 Y10
G0 F9000 X110.844 Y101.192
M205 X12 Y12
G1 F1080 X128.805 Y119.153 E32.94352
M205 X10 Y10
G0 F9000 X129.548 Y119.153
M205 X12 Y12
G1 F1080 X110.844 Y100.45 E34.67554
M205 X10 Y10
G0 F9000 X110.844 Y99.707
M205 X12 Y12
G1 F1080 X130.29 Y119.153 E36.47631
M205 X10 Y10
G0 F9000 X131.033 Y119.153
M205 X12 Y12
G1 F1080 X121.639 Y109.759 E37.34623
M205 X10 Y10
G0 F9000 X123.114 Y110.492
M205 X12 Y12
G1 F1080 X131.775 Y119.153 E38.14828
M205 X10 Y10
G0 F9000 X132.518 Y119.153
M205 X12 Y12
G1 F1080 X124.111 Y110.747 E38.92675
M205 X10 Y10
G0 F9000 X124.93 Y110.823
M205 X12 Y12
G1 F1080 X133.26 Y119.153 E39.69814
M205 X10 Y10
G0 F9000 X133.65 Y118.801
M205 X12 Y12
G1 F1080 X125.618 Y110.768 E40.44198
M205 X10 Y10
G0 F9000 X126.274 Y110.682
M205 X12 Y12
G1 F1080 X134.022 Y118.43 E41.15948
M205 X10 Y10
G0 F9000 X134.393 Y118.059
M205 X12 Y12
G1 F1080 X126.838 Y110.504 E41.8591
M205 X10 Y10
G0 F9000 X127.377 Y110.3
M205 X12 Y12
G1 F1080 X134.764 Y117.688 E42.54321
M205 X10 Y10
G0 F9000 X135.135 Y117.316
M205 X12 Y12
G1 F1080 X127.877 Y110.058 E43.21533
M205 X10 Y10
G0 F9000 X128.319 Y109.757
M205 X12 Y12
G1 F1080 X135.507 Y116.945 E43.88097
M205 X10 Y10
G0 F9000 X135.878 Y116.574
M205 X12 Y12
G1 F1080 X128.761 Y109.457 E44.54003
M205 X10 Y10
G0 F9000 X129.129 Y109.082
M205 X12 Y12
G1 F1080 X136.25 Y116.203 E45.19947
M205 X10 Y10
G0 F9000 X136.621 Y115.832
M205 X12 Y12
G1 F1080 X129.486 Y108.697 E45.8602
M205 X10 Y10
G0 F9000 X129.807 Y108.276
M205 X12 Y12
G1 F1080 X136.992 Y115.461 E46.52556
M205 X10 Y10
G0 F9000 X137.363 Y115.09
M205 X12 Y12
G1 F1080 X130.083 Y107.809 E47.19976
M205 X10 Y10
G0 F9000 X130.34 Y107.324
M205 X12 Y12
G1 F1080 X137.735 Y114.718 E47.88452
M205 X10 Y10
G0 F9000 X138.106 Y114.347
M205 X12 Y12
G1 F1080 X130.526 Y106.768 E48.58641
M205 X10 Y10
G0 F9000 X130.708 Y106.207
M205 X12 Y12
G1 F1080 X138.477 Y113.976 E49.30585
M205 X10 Y10
G0 F9000 X138.848 Y113.605
M205 X12 Y12
G1 F1080 X130.775 Y105.531 E50.05349
M205 X10 Y10
G0 F9000 X130.83 Y104.844
M205 X12 Y12
G1 F1080 X139.155 Y113.168 E50.82437
M205 X10 Y10
G0 F9000 X139.155 Y112.426
M205 X12 Y12
G1 F1080 X130.715 Y103.986 E51.60595
M205 X10 Y10
G0 F9000 X130.425 Y102.954
M205 X12 Y12
G1 F1080 X139.155 Y111.683 E52.41433
M205 X10 Y10
G0 F9000 X139.155 Y110.941
M205 X12 Y12
G1 F1080 X129.463 Y101.249 E53.31185
M205 X10 Y10
G0 F9000 X129.101 Y100.887
M205 X12 Y12
G1 F1080 X119.057 Y90.844 E54.24192
M205 X10 Y10
G0 F9000 X118.315 Y90.844
M205 X12 Y12
G1 F1080 X127.023 Y99.552 E55.04831
M205 X10 Y10
G0 F9000 X125.991 Y99.262
M205 X12 Y12
G1 F1080 X117.572 Y90.844 E55.8279
M205 X10 Y10
G0 F9000 X116.83 Y90.844
M205 X12 Y12
G1 F1080 X125.172 Y99.186 E56.6004
M205 X10 Y10
G0 F9000 X124.463 Y99.219
M205 X12 Y12
G1 F1080 X116.393 Y91.149 E57.34772
M205 X10 Y10
G0 F9000 X116.022 Y91.52
M205 X12 Y12
G1 F1080 X123.807 Y99.306 E58.06869
M205 X10 Y10
G0 F9000 X123.228 Y99.469
M205 X12 Y12
G1 F1080 X115.65 Y91.892 E58.77039
M205 X10 Y10
G0 F9000 X115.279 Y92.263
M205 X12 Y12
G1 F1080 X122.689 Y99.673 E59.45659
M205 X10 Y10
G0 F9000 X122.177 Y99.903
M205 X12 Y12
G1 F1080 X114.908 Y92.634 E60.12973
M205 X10 Y10
G0 F9000 X114.537 Y93.005
M205 X12 Y12
G1 F1080 X121.735 Y100.204 E60.79634
M205 X10 Y10
G0 F9000 X121.293 Y100.504
M205 X12 Y12
G1 F1080 X114.165 Y93.376 E61.45642
M205 X10 Y10
G0 F9000 X113.794 Y93.748
M205 X12 Y12
G1 F1080 X120.915 Y100.868 E62.1158
M205 X10 Y10
G0 F9000 X120.557 Y101.253
M205 X12 Y12
G1 F1080 X113.423 Y94.119 E62.77644
M205 X10 Y10
G0 F9000 X113.052 Y94.49
M205 X12 Y12
G1 F1080 X120.225 Y101.664 E63.44073
M205 X10 Y10
G0 F9000 X119.952 Y102.133
M205 X12 Y12
G1 F1080 X112.681 Y94.861 E64.1141
M205 X10 Y10
G0 F9000 X112.309 Y95.233
M205 X12 Y12
G1 F1080 X119.678 Y102.601 E64.79646
M205 X10 Y10
G0 F9000 X119.493 Y103.159
M205 X12 Y12
G1 F1080 X111.938 Y95.604 E65.49608
M205 X10 Y10
G0 F9000 X111.567 Y95.975
M205 X12 Y12
G1 F1080 X119.312 Y103.72 E66.2133
M205 X10 Y10
G0 F9000 X119.227 Y104.378
M205 X12 Y12
G1 F1080 X111.196 Y96.346 E66.95705
M205 X10 Y10
G0 F9000 X110.844 Y96.737
M205 X12 Y12
G1 F1080 X119.163 Y105.056 E67.72742
M205 X10 Y10
G0 F9000 X119.268 Y105.904
M205 X12 Y12
G1 F1080 X110.844 Y97.48 E68.50751
M205 X10 Y10
G0 F9000 X110.844 Y98.222
M205 X12 Y12
G1 F1080 X119.515 Y106.894 E69.31053
M205 X10 Y10
G0 F9000 X120.331 Y108.451
M205 X12 Y12
G1 F1080 X110.844 Y98.965 E70.18902
M205 X10 Y10
G1 F1500 E69.38902
G1 F720 Z0.7
G0 F9000 X119.8 Y90.844 Z0.7
M205 X12 Y12
G1 F720 Z0.3
G1 F2100 E70.2098
G1 F1080 X139.155 Y110.199 E72.00215
M205 X10 Y10
G0 F9000 X139.155 Y109.456
M205 X12 Y12
G1 F1080 X120.542 Y90.844 E73.72575
M205 X10 Y10
G0 F9000 X121.285 Y90.844
M205 X12 Y12
G1 F1080 X139.155 Y108.714 E75.38058
M205 X10 Y10
G0 F9000 X139.155 Y107.971
M205 X12 Y12
G1 F1080 X122.027 Y90.844 E76.96665
M205 X10 Y10
G0 F9000 X122.77 Y90.844
M205 X12 Y12
G1 F1080 X139.155 Y107.229 E78.48397
M205 X10 Y10
G0 F9000 X139.155 Y106.486
M205 X12 Y12
G1 F1080 X123.512 Y90.844 E79.93253
M205 X10 Y10
G0 F9000 X124.254 Y90.844
M205 X12 Y12
G1 F1080 X139.155 Y105.744 E81.31237
M205 X10 Y10
G0 F9000 X139.155 Y105.001
M205 X12 Y12
G1 F1080 X124.997 Y90.844 E82.62341
M205 X10 Y10
G0 F9000 X125.739 Y90.844
M205 X12 Y12
G1 F1080 X139.155 Y104.259 E83.86574
M205 X10 Y10
G0 F9000 X139.155 Y103.516
M205 X12 Y12
G1 F1080 X126.482 Y90.844 E85.03926
M205 X10 Y10
G0 F9000 X127.224 Y90.844
M205 X12 Y12
G1 F1080 X139.155 Y102.774 E86.14408
M205 X10 Y10
G0 F9000 X139.155 Y102.031
M205 X12 Y12
G1 F1080 X127.967 Y90.844 E87.18008
M205 X10 Y10
G0 F9000 X128.709 Y90.844
M205 X12 Y12
G1 F1080 X139.155 Y101.289 E88.14738
M205 X10 Y10
G0 F9000 X139.155 Y100.547
M205 X12 Y12
G1 F1080 X129.452 Y90.844 E89.04591
M205 X10 Y10
G0 F9000 X130.194 Y90.844
M205 X12 Y12
G1 F1080 X139.155 Y99.804 E89.87569
M205 X10 Y10
G0 F9000 X139.155 Y99.062
M205 X12 Y12
G1 F1080 X130.937 Y90.844 E90.63671
M205 X10 Y10
G0 F9000 X131.679 Y90.844
M205 X12 Y12
G1 F1080 X139.155 Y98.319 E91.32897
M205 X10 Y10
G0 F9000 X139.155 Y97.577
M205 X12 Y12
G1 F1080 X132.422 Y90.844 E91.95247
M205 X10 Y10
G0 F9000 X133.164 Y90.844
M104 S205
M205 X12 Y12
G1 F1080 X139.155 Y96.834 E92.50722
M205 X10 Y10
G1 F1500 E91.70722
G1 F720 Z0.7
;MESH:NONMESH
G0 F9000 X110.675 Y113.646 Z0.7
;TIME_ELAPSED:91.104600
;LAYER:1
M106 S85
;MESH:Wuxn Calibration Cube.STL
G0 X110.675 Y113.646 Z0.95
M204 S900
M205 X12 Y12
;TYPE:WALL-INNER
G1 F720 Z0.55
G1 F2100 E92.52801
G1 F3000 X116.355 Y119.324 E92.85481
G1 X133.645 Y119.325 E93.55837
G1 X139.325 Y113.645 E93.88524
G1 X139.325 Y98.578 E94.49834
G1 X139.325 Y96.354 E94.58884
G1 X133.645 Y90.676 E94.91565
G1 X116.355 Y90.675 E95.61921
G1 X110.676 Y96.355 E95.94604
G1 X110.675 Y113.646 E96.64964
M204 S1100
M205 X10 Y10
G0 F9000 X110.225 Y113.832
M204 S900
M205 X12 Y12
;TYPE:WALL-OUTER
G1 F1800 X116.169 Y119.774 E96.99164
G1 X133.831 Y119.775 E97.71034
G1 X139.775 Y113.831 E98.0524
G1 X139.775 Y98.578 E98.67307
G1 X139.775 Y96.168 E98.77114
G1 X133.831 Y90.226 E99.11314
G1 X116.169 Y90.225 E99.83183
G1 X110.226 Y96.169 E100.17386
G1 X110.225 Y113.832 E100.8926
M204 S1100
M205 X10 Y10
G0 F9000 X110.366 Y113.973
G1 F1500 E100.0926
G1 F720 Z0.95
G0 F9000 X120.532 Y108.471 Z0.95
M204 S900
M205 X12 Y12
;TYPE:WALL-INNER
G1 F720 Z0.55
G1 F2100 E100.91339
G1 F3000 X119.89 Y107.461 E100.96209
G1 X119.457 Y106.206 E101.01611
G1 X119.329 Y105.023 E101.06453
G1 X119.472 Y103.728 E101.11754
G1 X119.895 Y102.523 E101.16951
G1 X120.545 Y101.489 E101.21921
G1 X121.531 Y100.531 E101.27515
G1 X122.538 Y99.89 E101.32372
G1 X123.79 Y99.459 E101.3776
G1 X124.979 Y99.329 E101.42627
G1 X126.272 Y99.472 E101.47921
G1 X127.477 Y99.895 E101.53118
G1 X128.511 Y100.545 E101.58087
G1 X129.468 Y101.53 E101.63676
G1 X130.11 Y102.538 E101.68539
G1 X130.542 Y103.796 E101.73951
G1 X130.671 Y105.071 E101.79166
G1 X130.519 Y106.302 E101.84213
G1 X130.068 Y107.549 E101.89609
G1 X129.455 Y108.511 E101.94251
G1 X128.469 Y109.469 E101.99845
G1 X127.462 Y110.11 E102.04702
G1 X126.21 Y110.541 E102.1009
G1 X125.021 Y110.671 E102.14957
G1 X123.728 Y110.528 E102.20251
G1 X122.523 Y110.105 E102.25448
G1 X121.489 Y109.455 E102.30417
G1 X120.532 Y108.471 E102.36003
M204 S1100
M205 X10 Y10
G0 F9000 X120.908 Y108.224
M204 S900
M205 X12 Y12
;TYPE:WALL-OUTER
G1 F1800 X120.314 Y107.309 E102.40442
G1 X119.904 Y106.151 E102.45441
G1 X119.777 Y105.067 E102.49882
G1 X119.898 Y103.872 E102.54769
G1 X120.279 Y102.757 E102.59564
G1 X120.869 Y101.801 E102.64135
G1 X121.779 Y100.907 E102.69326
G1 X122.69 Y100.314 E102.73749
G1 X123.845 Y99.905 E102.78735
G1 X124.935 Y99.777 E102.83201
G1 X126.128 Y99.898 E102.88081
G1 X127.243 Y100.279 E102.92875
G1 X128.199 Y100.869 E102.97447
G1 X129.092 Y101.778 E103.02632
G1 X129.686 Y102.69 E103.07061
G1 X130.095 Y103.847 E103.12054
G1 X130.224 Y105.022 E103.16864
G1 X130.094 Y106.154 E103.21501
G1 X129.686 Y107.312 E103.26497
G1 X129.131 Y108.199 E103.30754
G1 X128.221 Y109.093 E103.35945
G1 X127.31 Y109.686 E103.40368
G1 X126.155 Y110.095 E103.45354
G1 X125.065 Y110.223 E103.4982
G1 X123.872 Y110.102 E103.547
G1 X122.757 Y109.721 E103.59494
G1 X121.801 Y109.131 E103.64066
G1 X120.908 Y108.224 E103.69245
M204 S1100
M205 X10 Y10
G0 F9000 X120.8 Y108.057
G1 F1500 E102.89245
G1 F720 Z0.95
G0 F9000 X116.481 Y90.7 Z0.95
M205 X12 Y12
;TYPE:SKIN
G1 F720 Z0.55
G1 F2100 E103.71324
G1 F4500 X110.7 Y96.481 E104.13811
M205 X10 Y10
G0 F9000 X110.7 Y97.188
M205 X12 Y12
G1 F4500 X117.188 Y90.7 E104.61495
M205 X10 Y10
G0 F9000 X117.895 Y90.7
M205 X12 Y12
G1 F4500 X110.7 Y97.896 E105.14379
M205 X10 Y10
G0 F9000 X110.7 Y98.603
M205 X12 Y12
G1 F4500 X118.603 Y90.7 E105.72462
M205 X10 Y10
G0 F9000 X119.31 Y90.7
M205 X12 Y12
G1 F4500 X110.7 Y99.31 E106.35741
M205 X10 Y10
G0 F9000 X110.7 Y100.017
M205 X12 Y12
G1 F4500 X120.017 Y90.7 E107.04217
M205 X10 Y10
G0 F9000 X120.724 Y90.7
M205 X12 Y12
G1 F4500 X110.7 Y100.724 E107.77888
M205 X10 Y10
G0 F9000 X110.7 Y101.431
M205 X12 Y12
G1 F4500 X121.431 Y90.7 E108.56756
M205 X10 Y10
G0 F9000 X122.138 Y90.7
M205 X12 Y12
G1 F4500 X110.7 Y102.138 E109.4082
M205 X10 Y10
G0 F9000 X110.7 Y102.845
M205 X12 Y12
G1 F4500 X122.845 Y90.7 E110.3008
M205 X10 Y10
G0 F9000 X123.552 Y90.7
M205 X12 Y12
G1 F4500 X110.7 Y103.552 E111.24536
M205 X10 Y10
G0 F9000 X110.7 Y104.26
M205 X12 Y12
G1 F4500 X124.259 Y90.7 E112.24192
M205 X10 Y10
G0 F9000 X124.966 Y90.7
M205 X12 Y12
G1 F4500 X110.7 Y104.967 E113.29044
M205 X10 Y10
G0 F9000 X110.7 Y105.674
M205 X12 Y12
G1 F4500 X125.674 Y90.7 E114.39095
M205 X10 Y10
G0 F9000 X126.381 Y90.7
M205 X12 Y12
G1 F4500 X110.7 Y106.381 E115.54343
M205 X10 Y10
G0 F9000 X110.7 Y107.088
M205 X12 Y12
G1 F4500 X127.088 Y90.7 E116.74787
M205 X10 Y10
G0 F9000 X127.795 Y90.7
M205 X12 Y12
G1 F4500 X110.7 Y107.795 E118.00427
M205 X10 Y10
G0 F9000 X110.7 Y108.502
M205 X12 Y12
G1 F4500 X128.502 Y90.7 E119.31263
M205 X10 Y10
G0 F9000 X129.209 Y90.7
M205 X12 Y12
G1 F4500 X110.7 Y109.209 E120.67296
M205 X10 Y10
G0 F9000 X110.7 Y109.916
M205 X12 Y12
G1 F4500 X129.916 Y90.7 E122.08524
M205 X10 Y10
G0 F9000 X130.623 Y90.7
M205 X12 Y12
